X: 34688
T: Road To Errogie, The
R: reel
M: 4/4
K: Gmajor
DGG2 AGAB|dGG2 ABdB|e3d BAGB|A3B AGEG|
DGG2 AGAB|dGG2 ABdB|e3d BAGB|AGAB G3E:|
g2g2 g2ag|ab2a g3d|e2dg2de2-|edgd edBc|
g2g2 g2ag|ab2a g3d|e3d BAGB|AGBA G4|
g2g2 g2ag|ab2a g3d|e2dg2de2-|edgd edBG|
DGG2 AGAB|dGG2 ABdB|e3d BAGB|AGBA G3E||

